svg/fluentui-system-icons/ic_fluent_comment_arrow_left_48_regular.svg

<svg width="48" height="48" viewBox="0 0 48 48" fill="none" xmlns="http://www.w3.org/2000/svg">
<path d="M46 13C46 19.0751 41.0751 24 35 24C28.9249 24 24 19.0751 24 13C24 6.92487 28.9249 2 35 2C41.0751 2 46 6.92487 46 13ZM36.2929 7.29289C35.9024 7.68342 35.9024 8.31658 36.2929 8.70711L39.5858 12L28 12C27.4477 12 27 12.4477 27 13C27 13.5523 27.4477 14 28 14L39.5858 14L36.2929 17.2929C35.9024 17.6834 35.9024 18.3166 36.2929 18.7071C36.6834 19.0976 37.3166 19.0976 37.7071 18.7071L42.7071 13.7071C42.8946 13.5196 43 13.2652 43 13C43 12.7348 42.8946 12.4804 42.7071 12.2929L37.7071 7.29289C37.3166 6.90237 36.6834 6.90237 36.2929 7.29289ZM41.5 28.75V24.2608C42.4086 23.7353 43.2476 23.1029 44 22.3809V28.75C44 32.7541 40.7541 36 36.75 36H26.3967L15.5475 43.6583C14.0571 44.7103 12 43.6444 12 41.8201V36H11.25C7.24594 36 4 32.7541 4 28.75V13.25C4 9.24594 7.24594 6 11.25 6H24.0436C23.544 6.78039 23.1255 7.61768 22.7999 8.5H11.25C8.62665 8.5 6.5 10.6266 6.5 13.25V28.75C6.5 31.3734 8.62665 33.5 11.25 33.5H14.5V41.3376L25.6033 33.5H36.75C39.3734 33.5 41.5 31.3734 41.5 28.75Z" fill="#212121"/>
</svg>

<svg xmlns="http://www.w3.org/2000/svg" width="48" height="48"><path d="M46 13c0 6.075-4.925 11-11 11s-11-4.925-11-11S28.925 2 35 2s11 4.925 11 11Zm-9.707-5.707a1 1 0 0 0 0 1.414L39.586 12H28a1 1 0 1 0 0 2h11.586l-3.293 3.293a1 1 0 0 0 1.414 1.414l5-5a1 1 0 0 0 0-1.414l-5-5a1 1 0 0 0-1.414 0ZM41.5 28.75v-4.49a13.044 13.044 0 0 0 2.5-1.88v6.37A7.25 7.25 0 0 1 36.75 36H26.397l-10.85 7.658C14.057 44.71 12 43.644 12 41.82V36h-.75A7.25 7.25 0 0 1 4 28.75v-15.5A7.25 7.25 0 0 1 11.25 6h12.794c-.5.78-.919 1.618-1.244 2.5H11.25a4.75 4.75 0 0 0-4.75 4.75v15.5a4.75 4.75 0 0 0 4.75 4.75h3.25v7.838L25.603 33.5H36.75a4.75 4.75 0 0 0 4.75-4.75Z"/></svg>
